assets/icons/event_colored.svg

<svg fill="none" height="24" viewBox="0 0 24 24" width="24" xmlns="http://www.w3.org/2000/svg"><path d="m20.9437 14.9512c-.2118-1.4865-.9563-2.6807-2.178-3.5868-.1486-.1103-.2111-.2283-.2101-.4116.0067-1.24161.0038-2.48322.0034-3.72483 0-.24576-.0064-.49037-.0305-.73633-.0971-.99159-.9607-1.79353-1.9763-1.821-.2436-.00658-.2442-.00658-.2582-.24151-.0364-.60513-.3139-1.05603-.8776-1.32889-.1833-.08863-.3836-.06521-.5748-.10024h-.1438c-.0148.00973-.0316.01578-.0493.01761-.6217.04509-1.105.4358-1.2611 1.01752-.0354.14227-.0569.28746-.0645.43367-.0105.14803-.0706.20029-.2229.1999-1.5603-.00348-3.12088-.00348-4.68159 0-.14376 0-.19774-.04683-.20368-.19178-.03105-.85089-.44374-1.32385-1.27683-1.47595h-.46629c-.12774.04857-.27011.02941-.39687.09463-.54696.28118-.83547.71814-.84634 1.32501-.00396.22816-.0095.23629-.20071.245-1.16946.05379-2.0249.92617-2.02609 2.07141-.00145 3.43918-.00192 6.87838-.00139 10.31738.00104.17.02019.3394.05715.5055.1667.7721.84279 1.4148 1.63574 1.5448.21242.0358.42752.0542.64307.055 1.83783-.0021 3.67587.0063 5.51363-.0083.3328-.0026.5707.0888.7995.3253.6439.6649 1.4375 1.0965 2.3335 1.3604.3296.0968.6675.1161 1.0031.1629h1.0059c.2571-.0431.5222-.028.7781-.0913 1.3277-.329 2.4072-1.0212 3.2035-2.1148.8372-1.1533 1.1698-2.4424.9703-3.8427zm-6.7628-9.86721h.0019c0-.22235-.0073-.44509.0018-.66686.0148-.37136.2591-.61365.6106-.61926.3516-.00561.6315.23222.6453.59159.0184.47895.0036.95926.0081 1.4388 0 .08708-.0429.09115-.11.09076-.3466-.00155-.6932-.00368-1.0399.00136-.0931.00135-.1228-.02323-.1202-.11612.0073-.24054.0029-.48108.0029-.72027zm-8.10755-.00329h.00179c0-.22835-.00494-.4567.00119-.68505.00929-.34272.28573-.5972.6393-.597.36306 0 .64939.26008.65256.60474.00534.4627 0 .9252.00356 1.3879.00098.09445-.018.13141-.12478.12928-.35297-.00677-.70615-.00619-1.05912 0-.09768.00154-.11864-.0302-.11706-.1194.00613-.24016.00218-.48031.00218-.72047zm-2.22521 2.65119c.02275-.4089-.03006-.82032.03025-1.22806.09037-.61113.66917-1.05371 1.30255-1.01016.09887.00677.10085.04934.10005.12075-.00256.21674-.00315.43368 0 .65042.00357.27866.14713.42574.42753.42786.67655.00349 1.35304.00349 2.02945 0 .2719-.00155.4204-.15191.42416-.41509.00296-.21675.00811-.43387-.00218-.65022-.00553-.11398.0356-.13295.1414-.13275 1.65234.00309 3.30465.00309 4.95705 0 .1017 0 .1328.02592.1291.12655-.0079.21055-.0071.42187-.0018.63261.0081.31718.1408.44007.4661.44026h1.9217c.3263 0 .4659-.13953.4677-.46116.0012-.20493.0061-.41025-.0026-.615-.0043-.1041.0344-.12153.1315-.12326.779-.01278 1.3166.49617 1.3296 1.27102.0058.32898-.0067.65641.0051.98423.0054.1461-.0371.18442-.1864.18384-1.6943-.00523-3.3886-.00329-5.082-.00329h-1.654c-2.24489 0-4.48994.00142-6.73513.00426-.16867-.00078-.20822-.04819-.19953-.20358zm6.91256 10.57841h-2.25707c-1.10737 0-2.21473-.0019-3.3221 0-.53391.0012-.94759-.1962-1.19912-.674-.09511-.1809-.13032-.376-.13051-.5753-.00185-2.7351-.00363-5.4705-.00534-8.20651 0-.15482.07336-.14901.18311-.14901 1.95727.00154 3.91455.00193 5.87182.00116 2.53191 0 5.06371-.0011 7.59551-.00329.164 0 .21.0387.2073.20184-.0105.62583-.0041 1.25211-.0041 1.87541-2.4683-.85151-4.6649-.4542-6.3601 1.5332-1.54836 1.8162-1.62825 3.8684-.5794 5.9965zm4.7561 1.9023c-2.63.0031-4.6448-2.0627-4.6397-4.543.0052-2.5216 2.072-4.5173 4.6366-4.5335 2.5914.0237 4.6452 2.029 4.6335 4.5554-.0129 2.5368-2.0682 4.5178-4.6304 4.5211z" fill="#969696"/><path d="m16.8449 16.1919c-.4018-.0052-.804-.0075-1.2057.0019-.1323.0031-.159-.0383-.1549-.1581.0092-.2713.0028-.5432.0028-.8148 0-.281 0-.562 0-.8431 0-.0649 0-.1301-.0338-.191-.0318-.0602-.0834-.1082-.1465-.1363s-.134-.0345-.2012-.0184c-.1582.0336-.2508.1507-.2516.3425-.0026.6884-.0026 1.377 0 2.0654.001.231.1244.3658.3563.3691.5456.0076 1.0908.0059 1.6367 0 .1798-.0019.2988-.0985.3298-.2362.0482-.2139-.0874-.3777-.3319-.381z" fill="#666"/></svg>

<svg width="24" height="24" viewBox="0 0 24 24" fill="none" xmlns="http://www.w3.org/2000/svg">
<path d="M20.9437 14.9512C20.7319 13.4647 19.9874 12.2705 18.7657 11.3644C18.6171 11.2541 18.5546 11.1361 18.5556 10.9528C18.5623 9.71119 18.5594 8.46958 18.559 7.22797C18.559 6.98221 18.5526 6.7376 18.5285 6.49164C18.4314 5.50005 17.5678 4.69811 16.5522 4.67064C16.3086 4.66406 16.308 4.66406 16.294 4.42913C16.2576 3.824 15.9801 3.3731 15.4164 3.10024C15.2331 3.01161 15.0328 3.03503 14.8416 3H14.6978C14.683 3.00973 14.6662 3.01578 14.6485 3.01761C14.0268 3.0627 13.5435 3.45341 13.3874 4.03513C13.352 4.1774 13.3305 4.32259 13.3229 4.4688C13.3124 4.61683 13.2523 4.66909 13.1 4.6687C11.5397 4.66522 9.97912 4.66522 8.41841 4.6687C8.27465 4.6687 8.22067 4.62187 8.21473 4.47692C8.18368 3.62603 7.77099 3.15307 6.9379 3.00097H6.47161C6.34387 3.04954 6.2015 3.03038 6.07474 3.0956C5.52778 3.37678 5.23927 3.81374 5.2284 4.42061C5.22444 4.64877 5.2189 4.6569 5.02769 4.66561C3.85823 4.7194 3.00279 5.59178 3.0016 6.73702C3.00015 10.1762 2.99968 13.6154 3.00021 17.0544C3.00125 17.2244 3.0204 17.3938 3.05736 17.5599C3.22406 18.332 3.90015 18.9747 4.6931 19.1047C4.90552 19.1405 5.12062 19.1589 5.33617 19.1597C7.174 19.1576 9.01204 19.166 10.8498 19.1514C11.1826 19.1488 11.4205 19.2402 11.6493 19.4767C12.2932 20.1416 13.0868 20.5732 13.9828 20.8371C14.3124 20.9339 14.6503 20.9532 14.9859 21H15.9918C16.2489 20.9569 16.514 20.972 16.7699 20.9087C18.0976 20.5797 19.1771 19.8875 19.9734 18.7939C20.8106 17.6406 21.1432 16.3515 20.9437 14.9512ZM14.1809 5.08399H14.1828C14.1828 4.86164 14.1755 4.6389 14.1846 4.41713C14.1994 4.04577 14.4437 3.80348 14.7952 3.79787C15.1468 3.79226 15.4267 4.03009 15.4405 4.38946C15.4589 4.86841 15.4441 5.34872 15.4486 5.82826C15.4486 5.91534 15.4057 5.91941 15.3386 5.91902C14.992 5.91747 14.6454 5.91534 14.2987 5.92038C14.2056 5.92173 14.1759 5.89715 14.1785 5.80426C14.1858 5.56372 14.1814 5.32318 14.1814 5.08399H14.1809ZM6.07335 5.0807H6.07514C6.07514 4.85235 6.0702 4.624 6.07633 4.39565C6.08562 4.05293 6.36206 3.79845 6.71563 3.79865C7.07869 3.79865 7.36502 4.05873 7.36819 4.40339C7.37353 4.86609 7.36819 5.32859 7.37175 5.79129C7.37273 5.88574 7.35375 5.9227 7.24697 5.92057C6.894 5.9138 6.54082 5.91438 6.18785 5.92057C6.09017 5.92211 6.06921 5.89037 6.07079 5.80117C6.07692 5.56101 6.07297 5.32086 6.07297 5.0807H6.07335ZM3.84814 7.73189C3.87089 7.32299 3.81808 6.91157 3.87839 6.50383C3.96876 5.8927 4.54756 5.45012 5.18094 5.49367C5.27981 5.50044 5.28179 5.54301 5.28099 5.61442C5.27843 5.83116 5.27784 6.0481 5.28099 6.26484C5.28456 6.5435 5.42812 6.69058 5.70852 6.6927C6.38507 6.69619 7.06156 6.69619 7.73797 6.6927C8.00987 6.69115 8.15837 6.54079 8.16213 6.27761C8.16509 6.06086 8.17024 5.84374 8.15995 5.62739C8.15442 5.51341 8.19555 5.49444 8.30135 5.49464C9.95369 5.49773 11.606 5.49773 13.2584 5.49464C13.3601 5.49464 13.3912 5.52056 13.3875 5.62119C13.3796 5.83174 13.3804 6.04306 13.3857 6.2538C13.3938 6.57098 13.5265 6.69387 13.8518 6.69406C14.4922 6.69406 15.1328 6.69406 15.7735 6.69406C16.0998 6.69406 16.2394 6.55453 16.2412 6.2329C16.2424 6.02797 16.2473 5.82265 16.2386 5.6179C16.2343 5.5138 16.273 5.49637 16.3701 5.49464C17.1491 5.48186 17.6867 5.99081 17.6997 6.76566C17.7055 7.09464 17.693 7.42207 17.7048 7.74989C17.7102 7.89599 17.6677 7.93431 17.5184 7.93373C15.8241 7.9285 14.1298 7.93044 12.4364 7.93044H10.7824C8.53751 7.93044 6.29246 7.93186 4.04727 7.9347C3.8786 7.93392 3.83905 7.88651 3.84774 7.73112L3.84814 7.73189ZM10.7607 18.3103H8.50363C7.39626 18.3103 6.2889 18.3084 5.18153 18.3103C4.64762 18.3115 4.23394 18.1141 3.98241 17.6363C3.8873 17.4554 3.85209 17.2603 3.8519 17.061C3.85005 14.3259 3.84827 11.5905 3.84656 8.85449C3.84656 8.69967 3.91992 8.70548 4.02967 8.70548C5.98694 8.70702 7.94422 8.70741 9.90149 8.70664C12.4334 8.70664 14.9652 8.70554 17.497 8.70335C17.661 8.70335 17.707 8.74205 17.7043 8.90519C17.6938 9.53102 17.7002 10.1573 17.7002 10.7806C15.2319 9.92909 13.0353 10.3264 11.3401 12.3138C9.79174 14.13 9.71185 16.1822 10.7607 18.3103ZM15.5168 20.2126C12.8868 20.2157 10.872 18.1499 10.8771 15.6696C10.8823 13.148 12.9491 11.1523 15.5137 11.1361C18.1051 11.1598 20.1589 13.1651 20.1472 15.6915C20.1343 18.2283 18.079 20.2093 15.5168 20.2126Z" fill="#969696"/>
<path d="M16.8449 16.1919C16.4431 16.1867 16.0409 16.1844 15.6392 16.1938C15.5069 16.1969 15.4802 16.1555 15.4843 16.0357C15.4935 15.7644 15.4871 15.4925 15.4871 15.2209C15.4871 14.9399 15.4871 14.6589 15.4871 14.3778C15.4871 14.3129 15.4871 14.2477 15.4533 14.1868C15.4215 14.1266 15.3699 14.0786 15.3068 14.0505C15.2437 14.0224 15.1728 14.016 15.1056 14.0321C14.9474 14.0657 14.8548 14.1828 14.854 14.3746C14.8514 15.063 14.8514 15.7516 14.854 16.44C14.855 16.671 14.9784 16.8058 15.2103 16.8091C15.7559 16.8167 16.3011 16.815 16.847 16.8091C17.0268 16.8072 17.1458 16.7106 17.1768 16.5729C17.225 16.359 17.0894 16.1952 16.8449 16.1919Z" fill="#666666"/>
</svg>
